X:266
T:Rip the Calico* (reel) 
T:Tear the Calico
B:CRE2.245 (gan ainm)
F:file ID: cre.2/266rip_c
M:C
R:reel
Q:180
K:D
d2fd d2fd|edBd egfe|d2fd d2fd|efdB A3c|
"5"d2fd d2fd|ed (3Bcd eAfe|d2fd d2fd|efdB A3z||
"9"|:dBBB g2fg|edBd e2fe|dBBB g2fg|e2 dB A3z:|
"13"a2af g2ef|edBd e3z|faaf g2fg|e2 dB A3z|
"17"faaf g2ef|edBd e3z|faaf g2fd|e2ef g2fe||

%%%

